X:43
T:Morning Rout. THO5.043, The
M:2/4
L:1/8
B:Thompson's Complete Collection of 200 Favourite Dances Vol.5
F:https://www.libraryofdance.org/manuals/1780c-Thompson-Compleat-5.pdf
Z:vmp. Peter Dunk 2024
Q:1/4=140
K:A
ed|(dc)ec|(cB)eB|(BA)cA|AGFE |
FAGB|AcBd|(d/c/B/A/) ec|TB2 ed|
(dc)ec|(cB)eB|(BA)cA|AGFE|
FAGB|Aafd|c2TB2|A2:|
|:ee|edcd|eaea|edcd|e2 ea|
fdfa|ecea|Bc e/d/c/B/ |AGFE|
edcd|eaea|edcd|e2 fa|
ecBA|GFBd|cABG|A2:|
W:
W:The 1st Gent lead the 2nd (Gent) round the
W:1st & 2nd Ladies, the turn both hands with their Partners ./.
W:Ladies do the same ./:
W:Hands across 4 and back again :/.
W:Lead through the 3rd Couple and cast up
W:lead through the 2nd Couple and cast off :/:

